X:14
T:Kitty Lie Over
D:Caoimhín Ó Raghallaigh & Mick O'Brien,
D:Kitty Lie Over, ACM Records ACM CD102.
N:There are a lot of B and Bb keys on that CD,
N:but this is more or less the way that Kevin
N:O'Reilly plays it.
N:The words to it go -
W:
W:The praties are boiling, the herrings are roasting,
W:Kitty lie over close to the wall (repeat).
W:
Z:ATB
R:slide
M:12/8
L:1/8
K:D
ABA DFA Add B/2c/2BA|ABA F/2G/2FD GFG EFG|
ABA DFA Add BAF|[1 ABA F/2G/2FE FDD D2d:|][2 ABA F/2G/2FE FDD D2e|]
fef dBA Bdc d2e|f2f def gfg efg|
fed ~B2d Add FAA|ABA F/2G/2FE FDD D2e|
fdd dBA fdd d2e|~f3 def ~g3 efg|
agd Bcd Add FAA|ABA FFE FDD D3|]
